X:1
T:[ID 2-46b]
T:[ID 2-46b]
T:Bezeichnung standardisiert: Menuett Menuet
T:Urheber unbekannt Erstbeleg: 1767 (Datum in der schriftlichen Quelle) Datum in der hier transkribierten schriftlichen Quelle: 1799
C:Urheber unbekannt
C:Erstbeleg: 1767 (Datum in der schriftlichen Quelle)
C:Datum in der hier transkribierten schriftlichen Quelle: 1799
%%score 1 2
L:1/8
M:3/4
K:D
V:1 treble nm="Primo"
V:2 treble nm="Secondo"
V:1
 a2 a2 a2 | a2 fdec | d2 A2 A2 | A2 FDEC | D2 f2 ef | d4 c2 | BdcBAG | A6 :: e2 e2 e2 | e2 cAB^G | %10
 A2 a2 a2 | a2 fdec | d2 b2 a2 | Tg4 f2 | egfgac | d6 :| %16
V:2
 !fermata!f2 f2 f2 | f2 afge | f2 F2 F2 | F2 AFGE | F2 d2 B2 | ef c4 | B2 A2 d2 |{d} c6 :: %8
 c2 c2 c2 | c2 ecdB | c2 f2 f2 | f2 AFGE | F2 g2 f2 |{f} e4 d2 | cedAGE |{E} F6 :| %16

